Apricity Icons/16/panel/weather-clouds.svg

<svg xmlns="http://www.w3.org/2000/svg" width="16" height="16" version="1.1">
 <defs>
  <style id="current-color-scheme" type="text/css">
   .ColorScheme-Text { color:#dfdfdf; } .ColorScheme-Highlight { color:#4285f4; }
  </style>
 </defs>
 <path style="fill:currentColor" class="ColorScheme-Text" d="M 7,0.002 6.5,1.0332 C 6.6619,1.0199 6.8348,1.002 7,1.002 H 7.5 Z M 7,2.002 C 4.2386,2.002 2,4.2405 2,7.002 2,7.472 2.0787,7.919 2.2012,8.348 2.7161,7.816 3.3723,7.417 4.1152,7.225 4.9387,5.8192 6.3555,4.7832 8.098,4.7832 9.74,4.7832 11.157,5.6455 11.996,6.9297 11.957,4.2021 9.737,2.002 7,2.002 Z M 2.0625,2.0645 2.4062,3.127 C 2.6253,2.8677 2.8658,2.6273 3.125,2.4082 Z M 11.938,2.0645 10.844,2.4395 H 10.781 C 10.92,2.5504 11.056,2.6646 11.188,2.7832 11.319,2.9018 11.445,3.025 11.563,3.1582 Z M 8.098,5.7832 C 6.5444,5.7832 5.2216,6.7341 4.6523,8.08 3.2065,8.295 2.0977,9.528 2.0977,11.033 2.0977,12.69 3.4408,14.033 5.0977,14.033 H 11.473 C 12.922,14.033 14.098,12.858 14.098,11.408 14.098,10.061 13.085,8.957 11.777,8.807 11.436,7.087 9.918,5.7832 8.098,5.7832 Z M 1,6.502 0,7.002 1.0312,7.502 C 1.0164,7.333 1,7.176 1,7.002 1,6.9745 0.998,6.9184 1,6.8457 1.006,6.7299 1.0224,6.6135 1.0312,6.502 Z M 12.969,6.502 C 12.984,6.6713 13,6.8284 13,7.002 13,7.029 13.002,7.086 13,7.158 12.994,7.274 12.978,7.39 12.969,7.502 H 13 L 14,7.002 Z"/>
</svg>

<svg height="16" width="16" xmlns="http://www.w3.org/2000/svg"><g fill="#dfdfdf"><path d="M7 .003l-.5 1.031c.162-.013.335-.031.5-.031h.5l-.5-1zm0 2a5 5 0 0 0-5 5c0 .47.079.917.201 1.346a4.094 4.094 0 0 1 1.914-1.123c.824-1.406 2.24-2.442 3.983-2.442 1.642 0 3.059.862 3.898 2.147A4.998 4.998 0 0 0 7 2.003zm-4.937.062l.343 1.063c.22-.26.46-.5.719-.719l-1.062-.344zm9.875 0l-1.094.375h-.063c.14.111.275.225.407.344.13.119.258.242.375.375l.375-1.094zM1 6.503l-1 .5 1.031.5c-.015-.17-.031-.327-.031-.5 0-.028-.002-.084 0-.156.006-.116.022-.233.031-.344H1zm11.969 0c.015.17.031.326.031.5 0 .027.002.083 0 .156-.006.116-.022.232-.031.344H13l1-.5-1.031-.5zm-4.871.281a2.737 2.737 0 0 0-2.526 1.688l-.218.517-.555.082c-.705.105-1.28.56-1.543 1.19a5.07 5.07 0 0 0 2.307 1.492 3.715 3.715 0 0 1 1.968-1.438c.536-1.143 1.623-2.054 2.873-2.263a2.735 2.735 0 0 0-2.306-1.268zm-4.936 4.734c.004.017.011.031.016.047h.04l-.056-.047z" style="marker:none" color="#bebebe" overflow="visible" stroke-width="2"/><path d="M8.097 5.784c-1.553 0-2.876.951-3.445 2.297a2.986 2.986 0 0 0-2.555 2.953 3 3 0 0 0 3 3h6.375a2.625 2.625 0 0 0 2.625-2.625 2.618 2.618 0 0 0-2.32-2.601 3.759 3.759 0 0 0-3.68-3.024z"/></g></svg>
